X: 40914
T: Trip To Ashbourne
R: jig
M: 6/8
K: Bminor
A|:BAF EFA|B2 A Bcd|BAF AFE|DEF ABd|
BAF EFA|B2 A Bcd|edB AFA [1 BAF E2 A:|2 [ BAF E2||
B|:~e3 ede|~f3 edB|def ~a3|baf afe|
f2B BAF|BAB d2f|edB AFA [1BAF E2 B:|2 BAF E2||

